client/src/assets/vectors/minus.svg

<svg enable-background="new 0 0 512 512" viewBox="0 0 512 512" xmlns="http://www.w3.org/2000/svg"><path d="m488.727 0h-232.727-232.727c-12.853 0-23.273 10.418-23.273 23.273v465.455c0 12.852 10.42 23.272 23.273 23.272h232.727 232.727c12.853 0 23.273-10.42 23.273-23.273v-465.454c0-12.855-10.42-23.273-23.273-23.273z" fill="#ff3f62"/><path d="m116.364 279.273c-12.853 0-23.273-10.42-23.273-23.273 0-12.854 10.42-23.273 23.273-23.273h139.636v-232.727h-232.727c-12.853 0-23.273 10.418-23.273 23.273v465.455c0 12.852 10.42 23.272 23.273 23.272h232.727v-232.727z" fill="#ff0c38"/><path d="m395.636 232.727h-139.636-139.636c-12.853 0-23.273 10.418-23.273 23.273 0 12.853 10.42 23.273 23.273 23.273h139.636 139.636c12.853 0 23.273-10.42 23.273-23.273 0-12.854-10.42-23.273-23.273-23.273z" fill="#830018"/></svg>

<?xml version="1.0" encoding="iso-8859-1"?>
<!-- Generator: Adobe Illustrator 19.0.0, SVG Export Plug-In . SVG Version: 6.00 Build 0)  -->
<svg version="1.1" id="Layer_1" xmlns="http://www.w3.org/2000/svg" xmlns:xlink="http://www.w3.org/1999/xlink" x="0px" y="0px"
	 viewBox="0 0 512 512" style="enable-background:new 0 0 512 512;" xml:space="preserve">
<path style="fill:#FF3F62;" d="M488.727,0H256H23.273C10.42,0,0,10.418,0,23.273v465.455C0,501.58,10.42,512,23.273,512H256h232.727
	C501.58,512,512,501.58,512,488.727V23.273C512,10.418,501.58,0,488.727,0z"/>
<path style="fill:#FF0C38;" d="M116.364,279.273c-12.853,0-23.273-10.42-23.273-23.273c0-12.854,10.42-23.273,23.273-23.273H256V0
	H23.273C10.42,0,0,10.418,0,23.273v465.455C0,501.58,10.42,512,23.273,512H256V279.273H116.364z"/>
<path style="fill:#830018;" d="M395.636,232.727H256H116.364c-12.853,0-23.273,10.418-23.273,23.273
	c0,12.853,10.42,23.273,23.273,23.273H256h139.636c12.853,0,23.273-10.42,23.273-23.273
	C418.909,243.146,408.489,232.727,395.636,232.727z"/>
<g>
</g>
<g>
</g>
<g>
</g>
<g>
</g>
<g>
</g>
<g>
</g>
<g>
</g>
<g>
</g>
<g>
</g>
<g>
</g>
<g>
</g>
<g>
</g>
<g>
</g>
<g>
</g>
<g>
</g>
</svg>
